public/images/technologies/bigdata/overview/icon_1.svg

<svg width="66" height="66" viewBox="0 0 66 66" fill="none" xmlns="http://www.w3.org/2000/svg">
<rect x="0.5" y="0.687012" width="65" height="65" rx="8" fill="url(#paint0_linear_37_12730)"/>
<path fill-rule="evenodd" clip-rule="evenodd" d="M43.1597 12.787C42.5461 13.0629 42.354 13.4911 42.354 14.5824V15.3826H41.8837C41.4974 15.3826 41.3761 15.4199 41.2052 15.5908L40.997 15.799L40.9975 19.471C40.9978 21.8572 41.0304 23.2618 41.0905 23.4822C41.2147 23.9378 41.96 24.6679 42.43 24.7945C42.665 24.8577 44.2139 24.8797 47.2928 24.8632C52.2913 24.8367 52.0223 24.8665 52.6076 24.2729C53.1699 23.7025 53.1651 23.7296 53.1935 21.0023L53.2195 18.5224L53.0066 18.3095C52.8308 18.1339 52.7122 18.0966 52.3272 18.0966H51.8608L51.8357 15.8127C51.8121 13.6594 51.8006 13.5154 51.6357 13.2948C51.5396 13.1661 51.3555 12.9821 51.2268 12.8859C50.9995 12.7161 50.8827 12.7104 47.2034 12.6918C44.1735 12.6764 43.3632 12.6955 43.1597 12.787ZM50.496 16.0611V18.0966H49.9692H49.4423L48.0763 16.7396L46.7103 15.3826H45.2106H43.711V14.7041V14.0256H47.1035H50.496V16.0611ZM47.4877 18.0966L48.8538 19.4536H50.3535H51.853V21.1883C51.853 23.033 51.8114 23.2695 51.4581 23.4305C51.1687 23.5623 43.0384 23.5623 42.749 23.4305C42.6354 23.3787 42.5 23.2433 42.4482 23.1297C42.3846 22.9902 42.354 21.9165 42.354 19.8313V16.7396H44.2379H46.1217L47.4877 18.0966ZM35.0987 19.6619L34.8905 19.87V26.1076V32.3451H33.8728H32.855V33.0236V33.7021H33.8728H34.8905V40.9574V48.2128L35.0987 48.4209L35.3069 48.6292H37.4735H39.64V47.9507V47.2722H37.9438H36.2475V40.4872V33.7021H37.9438H39.64V33.0236V32.3451H37.9438H36.2475V26.5779V20.8106H37.9438H39.64V20.1321V19.4536H37.4735H35.3069L35.0987 19.6619ZM20.1838 23.7207C20.0335 23.871 19.9641 24.084 19.8868 24.6325C19.706 25.915 19.7126 25.8957 19.4229 26.0167C18.524 26.3922 18.6159 26.4028 17.8762 25.8408C17.0905 25.244 16.9023 25.1361 16.6473 25.1361C16.4155 25.1361 14.2146 27.2812 14.1395 27.5802C14.0724 27.8474 14.1919 28.0823 14.8039 28.8862C15.3797 29.6426 15.3682 29.5473 14.9921 30.4475C14.871 30.7372 14.8904 30.7307 13.6078 30.9115C12.4853 31.0696 12.5 31.0417 12.5 33.0236C12.5 35.0056 12.4853 34.9776 13.6078 35.1358C14.8904 35.3166 14.871 35.3101 14.9921 35.5997C15.3682 36.5 15.3797 36.4047 14.8039 37.1611C14.1919 37.965 14.0724 38.1999 14.1395 38.4671C14.2146 38.7661 16.4155 40.9112 16.6473 40.9112C16.9023 40.9112 17.0905 40.8032 17.8762 40.2065C18.6159 39.6445 18.524 39.6551 19.4229 40.0306C19.7126 40.1516 19.706 40.1323 19.8868 41.4148C20.045 42.5373 20.017 42.5227 21.999 42.5227C23.981 42.5227 23.953 42.5373 24.1112 41.4148C24.292 40.1323 24.2855 40.1516 24.5751 40.0306C25.474 39.6551 25.3821 39.6445 26.1218 40.2065C26.9075 40.8032 27.0957 40.9112 27.3508 40.9112C27.5826 40.9112 29.7835 38.7661 29.8585 38.4671C29.9256 38.1999 29.8061 37.965 29.1942 37.1611C28.6183 36.4047 28.6298 36.5 29.006 35.5997C29.127 35.3101 29.1077 35.3166 30.3902 35.1358C31.5127 34.9776 31.498 35.0056 31.498 33.0236C31.498 31.0417 31.5127 31.0696 30.3902 30.9115C29.1077 30.7307 29.127 30.7372 29.006 30.4475C28.6298 29.5473 28.6183 29.6426 29.1942 28.8862C29.8061 28.0823 29.9256 27.8474 29.8585 27.5802C29.7835 27.2812 27.5826 25.1361 27.3508 25.1361C27.0957 25.1361 26.9075 25.244 26.1218 25.8408C25.3821 26.4028 25.474 26.3922 24.5751 26.0167C24.2855 25.8957 24.292 25.915 24.1112 24.6325C23.953 23.51 23.981 23.5246 21.999 23.5246C20.4201 23.5246 20.375 23.5295 20.1838 23.7207ZM22.7623 24.9246C22.7623 25.0772 23.0236 26.6669 23.0676 26.7813C23.1346 26.9557 23.2691 27.0285 24.0388 27.3061C24.375 27.4274 24.7692 27.5992 24.9148 27.688C25.3689 27.9649 25.6447 27.9029 26.3807 27.3583C26.7463 27.0879 27.0864 26.8417 27.1367 26.8111C27.1869 26.7807 27.4637 26.9935 27.7518 27.2842L28.2756 27.8127L27.7241 28.561C27.3555 29.0611 27.1726 29.3879 27.1726 29.5462C27.1726 29.6765 27.3015 30.0639 27.459 30.4068C27.6165 30.7499 27.8106 31.2123 27.8904 31.4343C27.9702 31.6565 28.1049 31.8754 28.1897 31.9207C28.3076 31.9838 29.8614 32.2603 30.098 32.2603C30.1217 32.2603 30.141 32.6038 30.141 33.0236C30.141 33.4435 30.1217 33.787 30.098 33.787C29.8614 33.787 28.3076 34.0634 28.1897 34.1265C28.1049 34.1719 27.9702 34.3908 27.8904 34.6129C27.8106 34.835 27.6165 35.2974 27.459 35.6405C27.3015 35.9834 27.1726 36.3714 27.1726 36.5024C27.1726 36.6598 27.3396 36.9665 27.6643 37.4053C27.9348 37.7709 28.181 38.111 28.2115 38.1613C28.242 38.2115 28.0292 38.4883 27.7385 38.7764L27.21 39.3002L26.4617 38.7487C25.9615 38.3802 25.6348 38.1972 25.4764 38.1972C25.3461 38.1972 24.9588 38.3261 24.6158 38.4836C24.2728 38.6411 23.8104 38.8353 23.5883 38.9151C23.3662 38.9948 23.1473 39.1296 23.1019 39.2144C23.0388 39.3323 22.7623 40.886 22.7623 41.1227C22.7623 41.1463 22.4188 41.1657 21.999 41.1657C21.5792 41.1657 21.2357 41.1463 21.2357 41.1227C21.2357 40.886 20.9592 39.3323 20.8961 39.2144C20.8507 39.1296 20.6318 38.9948 20.4097 38.9151C20.1877 38.8353 19.7253 38.6411 19.3822 38.4836C19.0392 38.3261 18.6495 38.1972 18.5164 38.1972C18.3494 38.1972 18.0443 38.3706 17.5353 38.7544L16.7965 39.3117L16.2588 38.774L15.7212 38.2363L16.2733 37.4872C16.8812 36.6624 16.9464 36.4035 16.6634 35.9394C16.5746 35.7938 16.4027 35.3996 16.2815 35.0634C16.0039 34.2937 15.9311 34.1592 15.7566 34.0922C15.6422 34.0483 14.0526 33.787 13.9 33.787C13.8763 33.787 13.857 33.4435 13.857 33.0236C13.857 32.6038 13.8763 32.2603 13.9 32.2603C14.0526 32.2603 15.6422 31.999 15.7566 31.9551C15.9311 31.8881 16.0039 31.7536 16.2815 30.9839C16.4027 30.6477 16.5746 30.2535 16.6634 30.1079C16.9464 29.6438 16.8812 29.3849 16.2733 28.5601L15.7212 27.811L16.2588 27.2733L16.7965 26.7356L17.5353 27.2929C18.3503 27.9076 18.6132 27.9747 19.0832 27.688C19.2289 27.5992 19.6231 27.4274 19.9593 27.3061C20.7289 27.0285 20.8635 26.9557 20.9305 26.7813C20.9744 26.6669 21.2357 25.0772 21.2357 24.9246C21.2357 24.901 21.5792 24.8816 21.999 24.8816C22.4188 24.8816 22.7623 24.901 22.7623 24.9246ZM43.1597 27.0355C42.5461 27.3114 42.354 27.7396 42.354 28.8309V29.6311H41.8837C41.4974 29.6311 41.3761 29.6684 41.2052 29.8394L40.997 30.0475L40.9975 33.7195C40.9978 36.1057 41.0304 37.5103 41.0905 37.7307C41.2147 38.1864 41.96 38.9164 42.43 39.043C42.665 39.1062 44.2139 39.1282 47.2928 39.1117C52.2913 39.0852 52.0223 39.1151 52.6076 38.5214C53.1699 37.951 53.1651 37.9781 53.1935 35.2508L53.2195 32.7709L53.0066 32.558C52.8308 32.3824 52.7122 32.3451 52.3272 32.3451H51.8608L51.8357 30.0612C51.8121 27.9079 51.8006 27.7639 51.6357 27.5433C51.5396 27.4146 51.3555 27.2306 51.2268 27.1344C50.9995 26.9646 50.8827 26.959 47.2034 26.9403C44.1735 26.9249 43.3632 26.944 43.1597 27.0355ZM50.496 30.3096V32.3451H49.9692H49.4423L48.0763 30.9881L46.7103 29.6311H45.2106H43.711V28.9526V28.2741H47.1035H50.496V30.3096ZM20.9592 29.0788C18.4634 29.7655 17.2449 32.4658 18.3566 34.8471C18.625 35.4223 19.6228 36.4074 20.218 36.6848C21.8789 37.4591 23.7141 37.1097 24.9489 35.7842C25.9394 34.721 26.2908 33.3979 25.9402 32.0519C25.3712 29.8677 23.0746 28.4969 20.9592 29.0788ZM23.1207 30.5849C24.8105 31.3585 25.2177 33.6159 23.9045 34.9291C22.8733 35.9603 21.1248 35.9603 20.0935 34.9291C19.4324 34.268 19.1469 33.2029 19.3986 32.3371C19.8768 30.6922 21.5917 29.8849 23.1207 30.5849ZM47.4877 32.3451L48.8538 33.7021H50.3535H51.853V35.4368C51.853 37.2815 51.8114 37.518 51.4581 37.679C51.1687 37.8108 43.0384 37.8108 42.749 37.679C42.6354 37.6272 42.5 37.4918 42.4482 37.3782C42.3846 37.2387 42.354 36.165 42.354 34.0798V30.9881H44.2379H46.1217L47.4877 32.3451ZM43.1597 40.6055C42.5461 40.8814 42.354 41.3096 42.354 42.4009V43.2012H41.8837C41.4974 43.2012 41.3761 43.2384 41.2052 43.4094L40.997 43.6175L40.9975 47.2895C40.9978 49.6757 41.0304 51.0803 41.0905 51.3008C41.2147 51.7564 41.96 52.4864 42.43 52.613C42.665 52.6762 44.2139 52.6982 47.2928 52.6818C52.2913 52.6552 52.0223 52.6851 52.6076 52.0914C53.1699 51.521 53.1651 51.5482 53.1935 48.8208L53.2195 46.3409L53.0066 46.128C52.8308 45.9524 52.7122 45.9152 52.3272 45.9152H51.8608L51.8357 43.6312C51.8121 41.4779 51.8006 41.3339 51.6357 41.1133C51.5396 40.9846 51.3555 40.8006 51.2268 40.7044C50.9995 40.5346 50.8827 40.529 47.2034 40.5103C44.1735 40.495 43.3632 40.514 43.1597 40.6055ZM50.496 43.8797V45.9152H49.9692H49.4423L48.0763 44.5582L46.7103 43.2012H45.2106H43.711V42.5227V41.8442H47.1035H50.496V43.8797ZM47.4877 45.9152L48.8538 47.2722H50.3535H51.853V49.0068C51.853 50.8515 51.8114 51.088 51.4581 51.249C51.1687 51.3808 43.0384 51.3808 42.749 51.249C42.6354 51.1972 42.5 51.0618 42.4482 50.9482C42.3846 50.8088 42.354 49.735 42.354 47.6498V44.5582H44.2379H46.1217L47.4877 45.9152Z" fill="white"/>
<defs>
<linearGradient id="paint0_linear_37_12730" x1="0.5" y1="34.0654" x2="65.5" y2="34.0654" gradientUnits="userSpaceOnUse">
<stop stop-color="#00469F"/>
<stop offset="1" stop-color="#1E79D6"/>
</linearGradient>
</defs>
</svg>

<svg xmlns="http://www.w3.org/2000/svg" width="66" height="66" fill="none" xmlns:v="https://vecta.io/nano"><rect x=".5" y=".687" width="65" height="65" rx="8" fill="url(#A)"/><path fill-rule="evenodd" d="M43.16 12.787c-.614.276-.806.704-.806 1.795v.8h-.47c-.386 0-.508.037-.678.208l-.208.208.001 3.672.093 4.011c.124.456.87 1.186 1.34 1.312.235.063 1.784.085 4.863.069 4.999-.026 4.73.003 5.315-.59.562-.57.558-.543.586-3.271l.026-2.48-.213-.213c-.176-.176-.294-.213-.679-.213h-.466l-.025-2.284c-.024-2.153-.035-2.297-.2-2.518a2.43 2.43 0 0 0-.409-.409c-.227-.17-.344-.175-4.023-.194-3.03-.015-3.84.004-4.044.095zm7.336 3.274v2.035h-.527-.527l-1.366-1.357-1.366-1.357h-1.5-1.5v-.678-.678h3.392 3.393v2.035zm-3.008 2.035l1.366 1.357h1.5 1.5v1.735c0 1.845-.042 2.081-.395 2.242-.289.132-8.42.132-8.709 0a.71.71 0 0 1-.301-.301c-.064-.139-.094-1.213-.094-3.298V16.74h1.884 1.884l1.366 1.357zm-12.389 1.565l-.208.208v6.238 6.238h-1.018-1.018v.678.678h1.018 1.018v7.255 7.255l.208.208.208.208h2.167 2.166v-.678-.678h-1.696-1.696v-6.785-6.785h1.696 1.696v-.678-.678h-1.696-1.696v-5.767-5.767h1.696 1.696v-.678-.678h-2.166-2.167l-.208.208zm-14.915 4.059c-.15.15-.22.363-.297.912-.181 1.282-.174 1.263-.464 1.384-.899.375-.807.386-1.547-.176-.786-.597-.974-.705-1.229-.705-.232 0-2.433 2.145-2.508 2.444-.067.267.052.502.664 1.306.576.756.564.661.188 1.561-.121.29-.102.283-1.384.464-1.122.158-1.108.13-1.108 2.112s-.015 1.954 1.108 2.112c1.283.181 1.263.174 1.384.464.376.9.388.805-.188 1.561-.612.804-.732 1.039-.664 1.306.075.299 2.276 2.444 2.508 2.444.255 0 .443-.108 1.229-.705.74-.562.648-.551 1.547-.176.29.121.283.102.464 1.384.158 1.123.13 1.108 2.112 1.108s1.954.015 2.112-1.108c.181-1.282.174-1.263.464-1.384.899-.376.807-.386 1.547.176.786.597.974.705 1.229.705.232 0 2.433-2.145 2.508-2.444.067-.267-.052-.502-.664-1.306-.576-.756-.564-.661-.188-1.561.121-.29.102-.283 1.384-.464 1.122-.158 1.108-.13 1.108-2.112s.015-1.954-1.108-2.112c-1.282-.181-1.263-.174-1.384-.464-.376-.9-.388-.805.188-1.561.612-.804.731-1.039.664-1.306-.075-.299-2.276-2.444-2.508-2.444-.255 0-.443.108-1.229.705-.74.562-.648.551-1.547.176-.29-.121-.283-.102-.464-1.384-.158-1.122-.13-1.108-2.112-1.108-1.579 0-1.624.005-1.815.196zm2.578 1.204c0 .153.261 1.742.305 1.857.067.174.202.247.971.525.336.121.73.293.876.382.454.277.73.215 1.466-.33l.756-.547c.05-.03.327.182.615.473l.524.529-.552.748c-.369.5-.552.827-.552.985 0 .13.129.518.286.861l.431 1.027c.08.222.215.441.299.486.118.063 1.672.34 1.908.34.024 0 .043.343.043.763s-.019.763-.043.763c-.237 0-1.79.276-1.908.34-.085.045-.22.264-.299.486s-.274.684-.431 1.028-.286.731-.286.862c0 .157.167.464.492.903l.547.756c.03.05-.182.327-.473.615l-.528.524-.748-.551c-.5-.368-.827-.551-.985-.551-.13 0-.518.129-.861.286l-1.027.431c-.222.08-.441.215-.486.299-.063.118-.34 1.672-.34 1.908 0 .024-.343.043-.763.043s-.763-.019-.763-.043c0-.237-.277-1.79-.34-1.908-.045-.085-.264-.22-.486-.299a16.58 16.58 0 0 1-1.027-.431c-.343-.158-.733-.286-.866-.286-.167 0-.472.173-.981.557l-.739.557-.538-.538-.538-.538.552-.749c.608-.825.673-1.084.39-1.548-.089-.146-.261-.54-.382-.876-.278-.77-.35-.904-.525-.971a23.84 23.84 0 0 0-1.857-.305c-.024 0-.043-.343-.043-.763s.019-.763.043-.763a23.84 23.84 0 0 0 1.857-.305c.175-.067.247-.202.525-.971.121-.336.293-.73.382-.876.283-.464.218-.723-.39-1.548l-.552-.749.538-.538.538-.538.739.557c.815.615 1.078.682 1.548.395.146-.089.54-.261.876-.382.77-.278.904-.35.971-.525.044-.114.305-1.704.305-1.857 0-.024.343-.043.763-.043s.763.019.763.043zm20.397 2.111c-.614.276-.806.704-.806 1.795v.8h-.47c-.386 0-.508.037-.678.208l-.208.208.001 3.672.093 4.011c.124.456.87 1.186 1.34 1.312.235.063 1.784.085 4.863.069 4.999-.026 4.73.003 5.315-.59.562-.57.558-.543.586-3.271l.026-2.48-.213-.213c-.176-.176-.294-.213-.679-.213h-.466l-.025-2.284c-.024-2.153-.035-2.297-.2-2.518a2.43 2.43 0 0 0-.409-.409c-.227-.17-.344-.175-4.023-.194-3.03-.015-3.84.004-4.044.095zm7.336 3.274v2.036h-.527-.527l-1.366-1.357-1.366-1.357h-1.5-1.5v-.678-.678h3.392 3.393v2.035zm-29.537-1.231c-2.496.687-3.714 3.387-2.603 5.768.268.575 1.266 1.56 1.861 1.838 1.661.774 3.496.425 4.731-.901.991-1.063 1.342-2.386.991-3.732-.569-2.184-2.866-3.555-4.981-2.973zm2.162 1.506c1.69.774 2.097 3.031.784 4.344-1.031 1.031-2.78 1.031-3.811 0-.661-.661-.947-1.726-.695-2.592.478-1.645 2.193-2.452 3.722-1.752zm24.367 1.76l1.366 1.357h1.5 1.5v1.735c0 1.845-.042 2.081-.395 2.242-.289.132-8.42.132-8.709 0a.71.71 0 0 1-.301-.301c-.064-.139-.094-1.213-.094-3.298v-3.092h1.884 1.884l1.366 1.357zm-4.328 8.26c-.614.276-.806.704-.806 1.795v.8h-.47c-.386 0-.508.037-.678.208l-.208.208.001 3.672.093 4.011c.124.456.87 1.186 1.34 1.312.235.063 1.784.085 4.863.069 4.999-.027 4.73.003 5.315-.59.562-.57.558-.543.586-3.271l.026-2.48-.213-.213c-.176-.176-.294-.213-.679-.213h-.466l-.025-2.284c-.024-2.153-.035-2.297-.2-2.518a2.43 2.43 0 0 0-.409-.409c-.227-.17-.344-.175-4.023-.194-3.03-.015-3.84.004-4.044.095zm7.336 3.274v2.035h-.527-.527l-1.366-1.357-1.366-1.357h-1.5-1.5v-.678-.678h3.392 3.393v2.035zm-3.008 2.035l1.366 1.357h1.5 1.5v1.735c0 1.845-.042 2.081-.395 2.242-.289.132-8.42.132-8.709 0a.71.71 0 0 1-.301-.301c-.064-.139-.094-1.213-.094-3.298v-3.092h1.884 1.884l1.366 1.357z" fill="#fff"/><defs><linearGradient id="A" x1=".5" y1="34.065" x2="65.5" y2="34.065" gradientUnits="userSpaceOnUse"><stop stop-color="#00469f"/><stop offset="1" stop-color="#1e79d6"/></linearGradient></defs></svg>
